X:395
T: Wuyi laodongjie
N: C1897
O: China, Guangdong Haifeng Lufeng
S: II, 373, 2)]
R: Xiaodiao, Chaozhou xiaodiao, Jianjianhua]
M: 2/4
L: 1/16
K: C
c2E2G4 | c2dec4 | c2ded2B2 | A2E2G4
G2c2A2G2 | E2A2G4 | D2G2G2D2 | E3DC4
EGAcG4 | D2G2G2D2 | E3DC4
cde2e2A2 | c2dec4
cde2e2A2 | c2dec4

